X: 79
T:New Bridge At Glasgow,The. WI.079
M:C|
Q:140
S:Wm Irwin, Folio MS, c1850. AGG's Transcription
R:Strathspey
O:England
A:Lake District
Z:vmp.Chris Partington.2005
K:Bb
D|G>AB>c A<FF2|G>AB>c d<gg2|\
f>dcB A/B/c/B/ AF|G>AB>c d<DG||!
G|G>gg>a f>gfc|d<ggd g/a/b/a/ gd|\
d<gg>d f>gfc|dg b/a/g/^f/ g2gG|!
G>gg>a f>gfc|d<ggd g/a/b/a/ gd|\
f<ad<f c<f A<F|G>AB>c d<DG|]
